X: 1
T: Pat and Al's    [A]
C: Liz Carroll
R: jig
S: https://thesession.org/tunes/3206 2017-4-26
Z: 2017 John Chambers <jc:trillian.mit.edu>
M: 6/8
L: 1/8
K: A
|:\
A,A,A, A,2B, | C2E A2c | BAF F2B | A2B c2e |\
A,A,A, A,2B, | C2E A2c | BAF FEC |1 ECB, B,CB, :|2 ECB, B,CE ||
AAA A2B | c2e afe | eff f2e | c2e f2a |\
eAA A2B | c2e afe | eff f2a | cBB B2c ||
AAA A2B | c2e afe | eff f2e | c2e f2b |\
aee f2c | eBB Bcc | BAF F2A | CB,B, B,2C |]
